public/images/etc.svg

<svg width="34" height="34" viewBox="0 0 34 34" fill="none" xmlns="http://www.w3.org/2000/svg">
<path d="M7.36669 18.7C6.89446 18.7 6.49308 18.5347 6.16252 18.2042C5.83196 17.8736 5.66669 17.4722 5.66669 17C5.66669 16.5278 5.83196 16.1264 6.16252 15.7958C6.49308 15.4653 6.89446 15.3 7.36669 15.3C7.83891 15.3 8.2403 15.4653 8.57085 15.7958C8.90141 16.1264 9.06669 16.5278 9.06669 17C9.06669 17.4722 8.90141 17.8736 8.57085 18.2042C8.2403 18.5347 7.83891 18.7 7.36669 18.7ZM17 18.7C16.5278 18.7 16.1264 18.5347 15.7959 18.2042C15.4653 17.8736 15.3 17.4722 15.3 17C15.3 16.5278 15.4653 16.1264 15.7959 15.7958C16.1264 15.4653 16.5278 15.3 17 15.3C17.4722 15.3 17.8736 15.4653 18.2042 15.7958C18.5347 16.1264 18.7 16.5278 18.7 17C18.7 17.4722 18.5347 17.8736 18.2042 18.2042C17.8736 18.5347 17.4722 18.7 17 18.7ZM26.6334 18.7C26.1611 18.7 25.7597 18.5347 25.4292 18.2042C25.0986 17.8736 24.9334 17.4722 24.9334 17C24.9334 16.5278 25.0986 16.1264 25.4292 15.7958C25.7597 15.4653 26.1611 15.3 26.6334 15.3C27.1056 15.3 27.507 15.4653 27.8375 15.7958C28.1681 16.1264 28.3334 16.5278 28.3334 17C28.3334 17.4722 28.1681 17.8736 27.8375 18.2042C27.507 18.5347 27.1056 18.7 26.6334 18.7Z" fill="black"/>
</svg>

<svg xmlns="http://www.w3.org/2000/svg" width="34" height="34" fill="none" viewBox="0 0 34 34"><path fill="#000" d="M7.367 18.7a1.64 1.64 0 0 1-1.204-.496A1.64 1.64 0 0 1 5.667 17c0-.472.165-.874.496-1.204a1.64 1.64 0 0 1 1.204-.496c.472 0 .873.165 1.204.496.33.33.496.732.496 1.204s-.166.874-.496 1.204a1.64 1.64 0 0 1-1.204.496zm9.633 0a1.64 1.64 0 0 1-1.204-.496A1.64 1.64 0 0 1 15.3 17c0-.472.165-.874.496-1.204A1.64 1.64 0 0 1 17 15.3c.472 0 .874.165 1.204.496.33.33.496.732.496 1.204s-.165.874-.496 1.204A1.64 1.64 0 0 1 17 18.7zm9.633 0a1.64 1.64 0 0 1-1.204-.496A1.64 1.64 0 0 1 24.933 17c0-.472.166-.874.496-1.204a1.64 1.64 0 0 1 1.204-.496c.473 0 .874.165 1.204.496.331.33.496.732.496 1.204s-.165.874-.495 1.204a1.64 1.64 0 0 1-1.205.496z"/></svg>
